src/lib/packages/icons/src/assets/filled/menu-right.svg

<svg width="24" height="24" viewBox="0 0 24 24" fill="none" xmlns="http://www.w3.org/2000/svg">
<path d="M2 6C2 5.448 2.448 5 3 5H21C21.552 5 22 5.448 22 6C22 6.552 21.552 7 21 7H3C2.448 7 2 6.552 2 6ZM21 11H3C2.448 11 2 11.448 2 12C2 12.552 2.448 13 3 13H21C21.552 13 22 12.552 22 12C22 11.448 21.552 11 21 11ZM21 17H12C11.448 17 11 17.448 11 18C11 18.552 11.448 19 12 19H21C21.552 19 22 18.552 22 18C22 17.448 21.552 17 21 17Z" fill="currentColor"/>
</svg>

<svg xmlns="http://www.w3.org/2000/svg" width="24" height="24" fill="none"><path fill="currentColor" d="M2 6a1 1 0 0 1 1-1h18a1 1 0 0 1 0 2H3a1 1 0 0 1-1-1Zm19 5H3a1 1 0 0 0 0 2h18a1 1 0 0 0 0-2Zm0 6h-9a1 1 0 0 0 0 2h9a1 1 0 0 0 0-2Z"/></svg>
